!!!COM: Claude Goudimel
!!!OMD: Psalm 43: Revenge-moy, pren la querele
**kern	**kern	**kern	**kern
*part4	*part3	*part2	*part1
*staff4	*staff3	*staff2	*staff1
*I"bassus	*I"tenor	*I"contra	*I"superius
*clefF4	*clefC4	*clefC3	*clefC1
*k[b-]	*k[b-]	*k[b-]	*k[b-]
!!LO:TX:omd:t=
*M2/2	*M2/2	*M2/2	*M2/2
*met(c|)	*met(c|)	*met(c|)	*met(c|)
=1	=1	=1	=1
1F	1F	1A	1c
=2	=2	=2	=2
1C	1G	1c	1e
=3	=3	=3	=3
1C	1G	1c	1e
=4	=4	=4	=4
2D	2F	2A	2d
2D	2F	2A	2d
=5	=5	=5	=5
2BB-	2B-	2d	2f
2BB-	2B-	2d	2f
=6	=6	=6	=6
1F	1A	1c	1f
=7	=7	=7	=7
1C	1G	1c	1e
=8	=8	=8	=8
2r	2r	2r	2r
2D	2F	2A	2d
=9	=9	=9	=9
1C	1G	1c	1e
=10	=10	=10	=10
1BB-	1B-	1d	1f
=11	=11	=11	=11
2F	2A	1c	2f
2C	[2G	.	2e
=12	=12	=12	=12
1D	2G]	2A	2d
.	[2F	2F	2B-
=13	=13	=13	=13
1C	2F]	1G	1c
.	2E	.	.
=14	=14	=14	=14
1FF	1F	1F	1c
=15	=15	=15	=15
1r	1r	1r	1r
=16	=16	=16	=16
1F	1A	1c	1f
=17	=17	=17	=17
2F	2A	2c	2f
2F	2A	2c	2f
=18	=18	=18	=18
2C	2G	2c	2e
2C	2G	2c	2e
=19	=19	=19	=19
2F	2A	2c	2f
2A	[2c	2c	2e
=20	=20	=20	=20
1G	2c]	1d	1g
.	2Bn	.	.
=21	=21	=21	=21
1C	1c	1c	1e
=22	=22	=22	=22
1r	1r	1r	1r
=23	=23	=23	=23
1C	1G	1c	1e
=24	=24	=24	=24
2C	2G	2c	2e
2C	2G	2c	2e
=25	=25	=25	=25
1F	1A	1c	1f
=26	=26	=26	=26
2C	1G	2c	2e
2GG	.	[2B-X	[2d
=27	=27	=27	=27
2BB-	2F	2B-]	2d]
2C	2E	2G	[2c
=28	=28	=28	=28
1GG	1D	1G	2c]
.	.	.	2Bn
=29	=29	=29	=29
1C	1C	1G	1c
=30	=30	=30	=30
1r	1r	1r	1r
=31	=31	=31	=31
1F	1A	1c	1f
=32	=32	=32	=32
2F	2c	2A	2f
2BB-	2B-	2d	2f
=33	=33	=33	=33
2F	2A	2c	2f
2C	2G	2c	2e
=34	=34	=34	=34
1F	1A	1c	1f
=35	=35	=35	=35
1BB-	1B-	1d	1f
=36	=36	=36	=36
2F	2A	2c	2f
2F	2A	2c	2f
=37	=37	=37	=37
2C	2G	2c	2e
2D	2F	2A	2d
=38	=38	=38	=38
2BB-	2F	2B-X	2d
2C	2E	2G	2c
=39	=39	=39	=39
1FF;	1F;	1F;	1c;
==	==	==	==
*-	*-	*-	*-
!!!software: music21 v.9.7.1
!!!software: music21 v.9.1.0
!!!RDF**kern: > = above
!!!RDF**kern: < = below
